azure-icons/icon-iot-691-DataBoxGateway.svg

<svg xmlns="http://www.w3.org/2000/svg" width="18" height="18"><defs><linearGradient id="a" x1="9" y1="15.342" x2="9" y2="2.658" gradientUnits="userSpaceOnUse"><stop offset="0" stop-color="#0078d4"/><stop offset=".817" stop-color="#5ea0ef"/></linearGradient></defs><path d="M17.947 11.369a4.019 4.019 0 00-3.489-3.864 5.068 5.068 0 00-5.22-4.847A5.2 5.2 0 004.27 6.046a4.8 4.8 0 00-4.217 4.616 4.869 4.869 0 005.038 4.68c.15 0 .3-.008.444-.02H13.7a.8.8 0 00.215-.032 4.068 4.068 0 004.032-3.921z" fill="url(#a)"/><path d="M9.468 10.545a4.708 4.708 0 10-4.707 4.8H9.47v-4.8z" fill="#50e6ff"/><path d="M1.325 11.747l1.782 1.473a.169.169 0 00.277-.13v-.641h4.253v-1h-6.2a.168.168 0 00-.112.298z" fill="#fff" opacity=".75"/><path d="M7.96 10.255L6.14 8.778a.169.169 0 00-.276.13v.646H2.01v1h5.843a.168.168 0 00.107-.299z" fill="#fff"/></svg>

<svg xmlns="http://www.w3.org/2000/svg" width="18" height="18" viewBox="0 0 18 18">
  <defs>
    <linearGradient id="a6a26b1e-cede-48df-bcf6-3a300bc5db1b" x1="9" y1="15.342" x2="9" y2="2.658" gradientUnits="userSpaceOnUse">
      <stop offset="0" stop-color="#0078d4"/>
      <stop offset="0.817" stop-color="#5ea0ef"/>
    </linearGradient>
  </defs>
  <title>Icon691_DataBox_Gateway</title>
  <g id="f6c7b812-ee36-44dd-823e-9aaf382a5c73">
    <g>
      <g>
        <path d="M17.947,11.369a4.019,4.019,0,0,0-3.489-3.864,5.068,5.068,0,0,0-5.22-4.847A5.2,5.2,0,0,0,4.27,6.046,4.8,4.8,0,0,0,.053,10.662a4.869,4.869,0,0,0,5.038,4.68c.15,0,.3-.008.444-.02H13.7a.8.8,0,0,0,.215-.032A4.068,4.068,0,0,0,17.947,11.369Z" fill="url(#a6a26b1e-cede-48df-bcf6-3a300bc5db1b)"/>
        <path d="M9.468,10.545a4.708,4.708,0,1,0-4.707,4.8c.053,0,.1,0,.157,0H9.47V10.545Z" fill="#50e6ff"/>
      </g>
      <path d="M1.325,11.747,3.107,13.22a.169.169,0,0,0,.277-.13v-.641H7.637v-1h-6.2A.168.168,0,0,0,1.325,11.747Z" fill="#fff" opacity="0.75"/>
      <path d="M7.96,10.255,6.14,8.778a.169.169,0,0,0-.276.13v.646H2.01v1H7.853A.168.168,0,0,0,7.96,10.255Z" fill="#fff"/>
    </g>
  </g>
</svg>
